assets/img/logo.svg

<svg width="22" height="31" viewBox="0 0 22 31" fill="none" xmlns="http://www.w3.org/2000/svg">
<path d="M4.65905 1.42185C5.34905 1.10185 6.08905 0.971852 6.79905 0.651852C7.84905 0.181852 8.99905 -0.0981475 10.3291 0.0318525C9.54905 0.631853 8.70905 0.401852 8.02905 0.761852C6.87905 1.13185 5.80905 1.63185 5.03905 2.69185C4.78905 3.04185 4.55905 3.39185 4.49905 3.85185C4.33905 3.89185 4.33905 4.02185 4.36905 4.17185C3.58905 6.98185 5.53905 8.91185 7.47905 10.0119C10.259 11.5919 13.2691 12.5219 16.1091 13.9519C17.6991 14.7519 19.209 15.7119 20.399 17.1719C22.399 19.6219 22.3791 23.2619 20.4291 25.8319C19.1791 27.4719 17.6191 28.5919 15.8091 29.3119C14.5791 29.8019 13.3291 30.2819 11.989 30.3319C11.7491 30.3419 11.4791 30.4719 11.2591 30.1219C11.8391 29.7419 12.4991 29.8619 13.0991 29.7019C14.5991 29.3119 15.9991 28.7019 16.9291 27.2819C17.7791 25.9819 18.039 24.4719 17.639 22.9219C17.359 21.8419 16.6191 21.0619 15.7691 20.4119C13.9991 19.0619 11.979 18.3219 9.99905 17.4919C7.63905 16.5119 5.24905 15.6319 3.13905 14.0419C1.98905 13.1719 0.97905 12.1619 0.44905 10.6819C-0.29095 8.65185 -0.11095 6.70185 0.94905 4.89185C1.45905 4.02185 2.06905 3.22185 2.82905 2.59185C2.99905 2.62185 3.11905 2.55185 3.16905 2.36185H3.20905L3.22905 2.32185C3.68905 2.13185 4.13905 1.91185 4.48905 1.51185C4.53905 1.48185 4.59905 1.45185 4.65905 1.42185Z" fill="white"/>
<path d="M6.64904 23.2218C6.67904 23.4718 6.69904 23.7218 6.72904 23.9718C6.54904 24.1518 6.54904 24.3818 6.55904 24.6218C5.89904 27.1318 3.29904 27.6518 1.71904 26.4818C0.899041 25.8818 0.249041 24.4918 0.469041 23.2918C0.709041 21.9718 1.37904 21.1018 2.42904 20.7818C3.63904 20.4018 4.90904 20.4918 5.89904 21.6718C6.15904 21.9818 6.19904 22.3918 6.46904 22.6718C6.41904 22.8918 6.42904 23.1018 6.64904 23.2218Z" fill="white"/>
<path d="M14.249 4.86189C14.509 4.05189 14.789 3.27189 15.449 2.73189C16.369 1.99189 17.359 1.89189 18.429 2.25189C18.629 2.32189 18.829 2.38189 19.029 2.45189H19.039C19.409 2.88189 19.789 3.31189 20.159 3.73189C20.429 4.39189 20.469 5.09189 20.489 5.80189C20.389 5.86189 20.369 5.94189 20.409 6.05189C20.339 6.25189 20.279 6.46189 20.209 6.66189C20.039 6.96189 19.739 7.17189 19.659 7.54189C19.549 7.54189 19.479 7.59189 19.449 7.71189C19.299 7.73189 19.159 7.78189 19.159 7.99189C19.059 8.03189 18.959 8.08189 18.859 8.12189C18.659 8.06189 18.559 8.19189 18.479 8.36189C18.359 8.38189 18.229 8.40189 18.109 8.42189C17.719 8.44189 17.339 8.47189 16.949 8.49189C16.869 8.49189 16.779 8.48189 16.699 8.48189C16.329 8.23189 15.959 8.01189 15.519 7.96189C15.479 7.93189 15.449 7.89189 15.409 7.86189C15.339 7.79189 15.279 7.73189 15.209 7.66189C15.109 7.61189 15.059 7.65189 15.059 7.77189L15.069 7.76189C15.209 7.41189 14.859 7.32189 14.779 7.08189C14.519 6.46189 14.319 5.81189 14.249 5.13189C14.259 5.05189 14.259 4.96189 14.249 4.86189Z" fill="white"/>
</svg>

<svg width="22" height="31" fill="none" xmlns="http://www.w3.org/2000/svg"><path d="M4.659 1.422c.69-.32 1.43-.45 2.14-.77 1.05-.47 2.2-.75 3.53-.62-.78.6-1.62.37-2.3.73-1.15.37-2.22.87-2.99 1.93-.25.35-.48.7-.54 1.16-.16.04-.16.17-.13.32-.78 2.81 1.17 4.74 3.11 5.84 2.78 1.58 5.79 2.51 8.63 3.94 1.59.8 3.1 1.76 4.29 3.22 2 2.45 1.98 6.09.03 8.66-1.25 1.64-2.81 2.76-4.62 3.48-1.23.49-2.48.97-3.82 1.02-.24.01-.51.14-.73-.21.58-.38 1.24-.26 1.84-.42 1.5-.39 2.9-1 3.83-2.42.85-1.3 1.11-2.81.71-4.36-.28-1.08-1.02-1.86-1.87-2.51-1.77-1.35-3.79-2.09-5.77-2.92-2.36-.98-4.75-1.86-6.86-3.45-1.15-.87-2.16-1.88-2.69-3.36-.74-2.03-.56-3.98.5-5.79.51-.87 1.12-1.67 1.88-2.3.17.03.29-.04.34-.23h.04l.02-.04c.46-.19.91-.41 1.26-.81.05-.03.11-.06.17-.09zm1.99 21.8c.03.25.05.5.08.75-.18.18-.18.41-.17.65-.66 2.51-3.26 3.03-4.84 1.86-.82-.6-1.47-1.99-1.25-3.19.24-1.32.91-2.19 1.96-2.51 1.21-.38 2.48-.29 3.47.89.26.31.3.72.57 1-.05.22-.04.43.18.55zm7.6-18.36c.26-.81.54-1.59 1.2-2.13.92-.74 1.91-.84 2.98-.48.2.07.4.13.6.2h.01c.37.43.75.86 1.12 1.28.27.66.31 1.36.33 2.07-.1.06-.12.14-.08.25-.07.2-.13.41-.2.61-.17.3-.47.51-.55.88-.11 0-.18.05-.21.17-.15.02-.29.07-.29.28-.1.04-.2.09-.3.13-.2-.06-.3.07-.38.24l-.37.06c-.39.02-.77.05-1.16.07-.08 0-.17-.01-.25-.01-.37-.25-.74-.47-1.18-.52-.04-.03-.07-.07-.11-.1l-.2-.2c-.1-.05-.15-.01-.15.11l.01-.01c.14-.35-.21-.44-.29-.68-.26-.62-.46-1.27-.53-1.95.01-.08.01-.17 0-.27z" fill="#fff"/></svg>
